static/img/icons/socials/golos.svg

<?xml version="1.0" encoding="UTF-8"?>
<svg width="42px" height="46px" viewBox="0 0 42 46" version="1.1" xmlns="http://www.w3.org/2000/svg" xmlns:xlink="http://www.w3.org/1999/xlink">
    <!-- Generator: Sketch 49.1 (51147) - http://www.bohemiancoding.com/sketch -->
    <defs></defs>
    <g id="Page-1" stroke="none" stroke-width="1" fill="none" fill-rule="evenodd">
        <g id="Landing-page" transform="translate(-1105.000000, -9807.000000)" fill="#8386A8" fill-rule="nonzero">
            <g id="social-icons" transform="translate(513.000000, 9804.000000)">
                <g id="golos" transform="translate(592.000000, 3.000000)">
                    <g id="Group">
                        <path d="M18.7586916,17.6408023 C22.1367292,16.2046465 24.3250211,12.8618815 24.3050467,9.16836676 C24.3364486,4.11627507 20.2973832,0 15.3633645,0 C10.4005607,0 6.36803738,4.11627507 6.36803738,9.16836676 C6.36478682,11.805225 7.48549063,14.3165875 9.44542056,16.0644126 L4.72336449,19.243553 C4.72336449,19.243553 14.1949533,20.0739255 18.7586916,17.6408023 Z" id="Shape"></path>
                        <path d="M37.9439252,27.6645845 C33.4338318,26.0341547 27.1442991,29.1882521 27.1442991,29.1882521 C27.1442991,29.1882521 31.9998131,22.6388539 31.8938318,12.9630372 C31.8414953,5.87982808 29.3476636,3.58114613 27.4360748,1.87163324 C27.5961007,2.84307095 27.6761862,3.82616605 27.675514,4.81088825 C27.675514,15.0745559 21.3611215,21.9706017 11.1986916,21.9706017 C6.97906542,21.9706017 3.10616822,21.9442407 0.00130841121,19.5651576 C0.054953271,19.7259599 0.505046729,21.6740401 2.30934579,23.7077937 C3.24941297,24.7572565 4.36273621,25.6348563 5.6,26.3017192 C10.1637383,28.7862464 13.6663551,29.08149 14.0104673,29.107851 C14.0379439,29.134212 14.0379439,29.1882521 14.0641121,29.2146132 C14.0641121,34.3194269 10.5078505,41.6161605 5.46654206,41.6161605 C4.71780201,41.6099868 3.97196195,41.5215944 3.24224299,41.3525501 C2.08752965,41.127266 0.997823746,40.6434879 0.0536448598,39.9369628 C0.0536448598,39.9369628 0.74317757,45.2553009 6.42168224,45.7904298 C12.6562617,46.3782808 15.5216822,45.0154155 21.7039252,41.2194269 C28.3114019,37.157192 33.3252336,32.8537536 37.173271,33.9226934 C40.0923364,34.7240688 40.5751402,39.4018338 40.5751402,39.4018338 C40.5751402,39.4018338 41.4504673,37.5565616 41.7160748,35.9274499 C41.9751402,34.2126648 42.4527103,29.2950143 37.9439252,27.6645845 Z" id="Shape"></path>
                    </g>
                </g>
            </g>
        </g>
    </g>
</svg>

<svg width="42" height="46" xmlns="http://www.w3.org/2000/svg"><g fill="#8386A8"><path d="M18.759 17.64c3.378-1.435 5.566-4.778 5.546-8.472C24.336 4.116 20.297 0 15.363 0c-4.962 0-8.995 4.116-8.995 9.168a9.224 9.224 0 0 0 3.077 6.896l-4.722 3.18s9.472.83 14.036-1.603z"/><path d="M37.944 27.665c-4.51-1.63-10.8 1.523-10.8 1.523s4.856-6.55 4.75-16.225c-.053-7.083-2.546-9.382-4.458-11.091.16.971.24 1.954.24 2.939 0 10.264-6.315 17.16-16.477 17.16-4.22 0-8.093-.027-11.198-2.406.054.161.504 2.109 2.308 4.143A12.171 12.171 0 0 0 5.6 26.302c4.564 2.484 8.066 2.78 8.41 2.806.028.026.028.08.054.107 0 5.104-3.556 12.401-8.597 12.401a10.23 10.23 0 0 1-2.225-.263 7.822 7.822 0 0 1-3.188-1.416s.69 5.318 6.368 5.853c6.234.588 9.1-.775 15.282-4.57 6.607-4.063 11.621-8.366 15.47-7.297 2.918.801 3.401 5.479 3.401 5.479s.875-1.845 1.141-3.475c.26-1.714.737-6.632-3.772-8.262z"/></g></svg>
